X:91
T:Ten Stone
M:2/4
L:1/16
Q:1/4=3D110
K:Eb
B2|\
BBBB B2c2|B2G2 B4|B4 c2B2|G2 B4 z2|
EEEE E2GG|FFE2 C4|E4 F4  |G2F2 E4 |
E4   E4  |E4   E4|B4 B3G |F2E2 C2E2|
FFFF F4  |FFFF F2B2|B2B2 A2F2|E4 E2||
